X: 25547
T: Marine, The
R: jig
M: 6/8
K: Dmajor
e|f2 a gfe|f2 d B2 A|AFA faf|e3 e2 d|
f2 a gfe|f2 d B2 A|AFA faf|d3 d2||
e|e3 efg|a3 a3|gBB gBB|g3 gfe|
f2 a gfe|f2 d B2 A|AFA faf|d3 d2||

